X: 1
T: Corney Is Coming
M: 4/4
L: 1/8
R: reel
K: Dmaj
|AAdc defd|cABG EFGE|Addc defg|af(3gfe fdec|
Addc defd|cABG EFGE|Addc defd|1gece eddc:|2gece eddA||
|:dcdf afdB|=cdef ge^ce|dcdf afdf|~g2ag edd2|
[1afdf afdf|gece gece|defg ~a3f|~g2ag eddA:|
[2afdf ~a3f|gece ~g3e|defg ~a3f|~g2ag edd2||
